!!!!SEGMENT: pl-kk--kk-i-7--048-002_herrisant-jehan-missa-fily-dei-et-in-terra.krn
!!!id: 16xx:857
!!!COM: Hérissant, Jehan
!!!OTL: Missa Fily Dei – Et in terra
!!!PDT:
!!!SMS-siglum: PL-Kk
!!!SMS-shelfmark: Kk.I.7
!!!NIFC-rismID: 300258125
!!!URL-scan: http://repozytorium.nifc.pl/skany/pl-kk-nut--i-7
!!!ONB-nifc: UWAGA: C (skan 0043-0044, s.80-83), A (0127-0128, s.74-77), T(0203-0205, s.70-73), B(0292-0293, s.71-73). Części Mszy: 1. Kyrie, 2. Et in terra, 3. Sanctus, 4. Agnus Dei. "Benedictus" głosu T rozpisane na luźnej kartce włożonej między strony 72-73
!!!SMS-variant:
!!!SMS-altvar:
**kern	**text	**kern	**text	**kern	**text	**kern	**text
*part4	*part4	*part3	*part3	*part2	*part2	*part1	*part1
*staff4	*staff4	*staff3	*staff3	*staff2	*staff2	*staff1	*staff1
*I"BASSVS.	*	*I"TENOR.	*	*I"ALTVS.	*	*I"CANTVS.	*
*I'B	*	*I'T	*	*I'A	*	*I'S	*
*clefF3	*	*clefC3	*	*clefC3	*	*clefC1	*
*k[b-]	*	*k[b-]	*	*k[b-]	*	*k[b-]	*
*M2/1	*	*M2/1	*	*M2/1	*	*M2/1	*
*met(C|)	*	*met(C|)	*	*met(C|)	*	*met(C|)	*
=1-	=1-	=1-	=1-	=1-	=1-	=1-	=1-
!LO:TX:a:t=P:problem:w źródle znaki przykluczowe B- BB-, zapisane jeden nad drugim w pionie	!	!	!	!	!	!	!
!	!	!LO:TX:b:t=Et in terra	!	!	!	!LO:TX:b:t=Et in terra	!
!LO:TX:t=P:problem:kreska pseudotaktowa	!	!	!	!	!	!	!
0r	.	00r	.	1.c	Et	00r	.
.	.	.	.	2c/	in	.	.
=2-	=2-	=2-	=2-	=2-	=2-	=2-	=2-
1.c	Et	.	.	2c/	ter-	.	.
!	!	!	!	!LO:TX:t=P:problem:kreska pseudotaktowa	!	!	!
.	.	.	.	2B-/	-ra	.	.
.	.	.	.	2.A/	pax	.	.
*2\right	*	*	*	*	*	*	*
2c\	in	.	.	.	.	.	.
.	.	.	.	4G/	ho-	.	.
=3-	=3-	=3-	=3-	=3-	=3-	=3-	=3-
!	!	!LO:TX:t=P:problem:kreska pseudotaktowa	!	!	!	!LO:TX:t=P:problem:kreska pseudotaktowa	!
2c\	ter-	1rc	.	2F/	-mi-	1ra	.
!	!	!	!	!LO:TX:t=P:problem:kreska pseudotaktowa	!	!	!
2B-\	-ra	.	.	2G/	-ni-	.	.
2.A\	pax	2rA	.	2F,/	-b(us)	1cc	Ho-
*	*	*	*	*2\right	*	*	*
.	.	2F/	Ho-	2f\	bo-	.	.
!LO:TX:t=P:problem:kreska pseudotaktowa	!	!	!	!	!	!	!
4G\	ho-	.	.	.	.	.	.
=4-	=4-	=4-	=4-	=4-	=4-	=4-	=4-
*	*	*	*	*	*	*2\right	*
2F\	-mi-	2A/	-mi-	2f\	-nae	2cc\	-mi-
!	!	!LO:TX:t=P:problem:kreska pseudotaktowa	!	!LO:TX:t=P:problem:kreska pseudotaktowa	!	!	!
2G\	-ni-	2B-/	-ni-	2d\	Vo-	2b-\	-ni-
1.F	-b(us)	1.c	-bus	0f	-lun-	1.a	-b(us)
=5-	=5-	=5-	=5-	=5-	=5-	=5-	=5-
.	.	.	.	.	.	.	.
*	*	*2\right	*	*	*	*	*
!	!	!LO:TX:t=P:problem:kreska pseudotaktowa	!	!	!	!LO:TX:t=P:problem:kreska pseudotaktowa	!
2F/	bo-	2d\	bo-	.	.	2a\	bo-
2C/	-nae	2e\	-nae	0g	-ta-	2g\	-nae
2C/	vo-	2c\	vo-	.	.	2cc\	Vo-
=6-	=6-	=6-	=6-	=6-	=6-	=6-	=6-
2G\	-lun-	2d\	-lun-	.	.	2cc\	-lun-
!	!	!	!	!	!	!LO:SIC:v:s=2bn	!
2G\	-ta-	2d\	-ta-	.	.	2b-\	-ta-
!LO:TX:t=P:problem:kreska pseudotaktowa	!	!LO:TX:t=P:problem:kreska pseudotaktowa	!	!	!	!LO:TX:t=P:problem:kreska pseudotaktowa	!
1C	-tis	1c	-tis	2e,\	-tis	0cc	-tis
.	.	.	.	2e\	Lau-	.	.
=7-	=7-	=7-	=7-	=7-	=7-	=7-	=7-
!LO:TX:a:t=I.	!	!	!	!	!	!	!
!LO:TX:t=P:problem:kreska pseudotaktowa	!	!	!	!	!	!	!
1r	.	2rA	.	2.e\	-da-	.	.
.	.	2A/	Lau-	.	.	.	.
.	.	.	.	4d\	.	.	.
!	!	!	!	!	!	!LO:TX:t=P:problem:kreska pseudotaktowa	!
2r	.	2.A/	-da-	2c/	.	0r	.
2A\	Lau-	.	.	2c/	.	.	.
.	.	4G/	-m(us)	.	.	.	.
=8-	=8-	=8-	=8-	=8-	=8-	=8-	=8-
2A\	-da-	2F,/	Te	2c/	-mus	.	.
*	*	*	*ij	*	*	*	*
!LO:TX:t=P:problem:kreska pseudotaktowa	!	!	!	!LO:TX:t=P:problem:kreska pseudotaktowa	!	!	!
2G\	-m(us)	2d\	Lau-	2B-/	.	.	.
2.F/	Te	2d\	-da-	2A,/	Te	1a	Lau-
.	.	1c\	-mus	2.f\	Lau-	.	.
4E/	.	.	.	.	.	.	.
=9-	=9-	=9-	=9-	=9-	=9-	=9-	=9-
2F\	.	.	.	.	.	2a\	-da-
.	.	.	.	4e\	.	.	.
!	!	!LO:TX:t=P:problem:kreska pseudotaktowa	!	!	!	!	!
2G\	.	2B-,/	te	4d\	.	2g/	-m(us)
*	*	*	*Xij	*	*	*	*
.	.	.	.	4c\	.	.	.
2D,/	.	1A	be-	2d\	-da-	2f/	Te
!	!	!	!	!LO:TX:t=P:problem:kreska pseudotaktowa	!	!LO:TX:t=P:problem:kreska pseudotaktowa	!
2D/	be-	.	.	2d\	-m(us)	2f/	be-
=10-	=10-	=10-	=10-	=10-	=10-	=10-	=10-
*	*	*	*	*	*ij	*	*
1.BB-	-ne-	1.d	-ne-	1.f	Lau-	1.b-	-ne-
2BB-/	-di-	2c/	-di-	2e\	-da-	2a\	di-
=11-	=11-	=11-	=11-	=11-	=11-	=11-	=11-
2BB-/	-ci-	2B-/	-ci-	2d\	.	2g/	-ci-
!LO:TX:t=P:problem:kreska pseudotaktowa	!	!	!	!	!	!LO:TX:t=P:problem:kreska pseudotaktowa	!
2BB-/	-m(us)	2A/	-m(us)	2d\	-m(us)	2f/	-m(us)
*	*	*	*	*	*Xij	*	*
!LO:TX:t=P:problem:kreska pseudotaktowa	!	!LO:TX:t=P:problem:kreska pseudotaktowa	!	!LO:TX:t=P:problem:kreska pseudotaktowa	!	!LO:TX:t=P:problem:kreska pseudotaktowa	!
0C	Te	0G	Te.	0c	Te	0e	Te.
=12-	=12-	=12-	=12-	=12-	=12-	=12-	=12-
.	.	.	.	.	.	.	.
1.F	a-	1.A	a-	2r	.	2rf	.
.	.	.	.	1c\	a-	1f/	a-
=13-	=13-	=13-	=13-	=13-	=13-	=13-	=13-
.	.	.	.	.	.	.	.
2F\	-do-	2A/	-do-	2c/	-do-	2f/	-do-
1D	-ra-	1A	-ra-	1.d	-ra-	1f	-ra-
=14-	=14-	=14-	=14-	=14-	=14-	=14-	=14-
!	!	!	!	!	!	!LO:TX:t=P:problem:kreska pseudotaktowa	!
1G	-m(us)	1B-	-m(us)	.	.	1g	-mus
.	.	.	.	2e\	-m(us)	.	.
!LO:TX:t=P:problem:kreska pseudotaktowa	!	!	!	!LO:TX:t=P:problem:kreska pseudotaktowa	!	!	!
0F	Te.	2c/	Te	1f	Te	2a\	Te
.	.	2c/	glo-	.	.	2a\	glo-
!LO:SIC:v:t=custos F	!	!	!	!	!	!	!
!LO:LB:g=original	!	!	!	!LO:LB:g=original	!	!	!
=15-	=15-	=15-	=15-	=15-	=15-	=15-	=15-
.	.	2c/	-ri-	2re	.	2a\	-ri-
!	!	!LO:TX:t=P:problem:kreska pseudotaktowa	!	!LO:TX:t=P:problem:kreska pseudotaktowa	!	!LO:TX:t=P:problem:kreska pseudotaktowa	!
.	.	2F/	-fi-	2f\	glo-	2a\	-fi-
!	!	!LO:LB:g=original	!	!	!	!	!
2r	.	2.A/	-ca-	2f\	-ri-	4a\	-ca-
.	.	.	.	.	.	4g\	.
2F/	glo-	.	.	1c\	-fi-	4f/	.
.	.	4G/	.	.	.	4e/	.
=16-	=16-	=16-	=16-	=16-	=16-	=16-	=16-
2F/	-ri-	2A/	.	.	-ca-	2f/	.
!	!	!	!	!	!	!LO:SIC:v:t=custos g	!
!LO:TX:t=P:problem:kreska pseudotaktowa	!	!	!	!	!	!LO:TX:t=P:problem:kreska pseudotaktowa	!
2BB-/	-fi-	2.B-/	.	1d	-ca-	[<2g/	.
!	!	!	!	!	!	!LO:LB:g=original	!
!	!	!	!	!	!	!LO:N:xstem:cue	!
2D/	-ca-	.	.	.	.	4g/]	.
.	.	4A/	.	.	.	4f/	.
!	!	!	!	!LO:TX:t=P:problem:kreska pseudotaktowa	!	!	!
2D/	-m(us)	4G/	.	2B-/	.	1f/	.
.	.	4F/	.	.	.	.	.
=17-	=17-	=17-	=17-	=17-	=17-	=17-	=17-
!LO:TX:t=P:problem:kreska pseudotaktowa	!	!	!	!	!	!	!
1C	Te.	1G	-mus	1c	.	.	.
.	.	.	.	.	.	2e/	-mus
!	!	!	!	!	!	!LO:TX:t=P:problem:kreska pseudotaktowa	!
0r	.	2F,/	Te.	2.A/	.	0f	Te.
.	.	2F/	Gra-	.	.	.	.
.	.	.	.	4B-/	.	.	.
=18-	=18-	=18-	=18-	=18-	=18-	=18-	=18-
.	.	2F/	-ti-	2c\	-mus	.	.
!	!	!LO:TX:t=P:problem:kreska pseudotaktowa	!	!	!	!	!
.	.	2B-/	-as	2d\	.	.	.
!	!	!	!	!LO:TX:t=P:problem:kreska pseudotaktowa	!	!	!
1F	Gra-	2.A/	a-	1c	Te.	2r	.
.	.	.	.	.	.	2cc\	Gra-
.	.	4G/	-gi-	.	.	.	.
=19-	=19-	=19-	=19-	=19-	=19-	=19-	=19-
2F\	-ti-	2A/	-m(us)	1rg	.	2cc\	-ti-
!	!	!	!	!	!	!LO:TX:t=P:problem:kreska pseudotaktowa	!
2G\	-as	2B-/	Ti-	.	.	2b-\	-as
!	!	!LO:TX:t=P:problem:kreska pseudotaktowa	!	!	!	!	!
2.F\	a-	1c	-bi	2r	.	1.a	a-
.	.	.	.	1f\	Gra-	.	.
4F\	-gi-	.	.	.	.	.	.
=20-	=20-	=20-	=20-	=20-	=20-	=20-	=20-
2F\	-m(us)	2r	.	.	.	.	.
2F\	Ti-	1c	pro-	2f\	-ti-	2a\	-gi-
!	!	!	!	!LO:TX:t=P:problem:kreska pseudotaktowa	!	!	!
2C,/	-bi	.	.	1g	-as	2g\	-m(us)
!LO:TX:t=P:problem:kreska pseudotaktowa	!	!LO:TX:t=P:problem:kreska pseudotaktowa	!	!	!	!	!
2C/	pro-	2c\	-pter	.	.	1cc\	Ti-
=21-	=21-	=21-	=21-	=21-	=21-	=21-	=21-
2F\	-pter	1d	ma-	2f\	a-	.	.
!	!	!	!	!	!	!LO:SIC:v:s=2bn	!
2G\	ma-	.	.	2d\	-gi-	2b-\	-bi
!	!	!	!	!	!	!LO:TX:t=P:problem:kreska pseudotaktowa	!
2C,/	-gnam	2c/	gnam	2e,\	-m(us)	1cc	.
2F/	glo-	2A/	glo-	2f\	Ti-	.	.
=22-	=22-	=22-	=22-	=22-	=22-	=22-	=22-
2E/	-ri-	2B-/	-ri-	2g,\	-bi	0r	.
!	!	!	!	!LO:TX:t=P:problem:kreska pseudotaktowa	!	!	!
2C/	-am	1c	-a(m)	2g\	pro-	.	.
1D	tu-	.	.	2f\	-pter	.	.
.	.	2B-/	tu-	2d\	ma-	.	.
=23-	=23-	=23-	=23-	=23-	=23-	=23-	=23-
*lig	*	*	*	*	*	*	*
!	!	!LO:TX:t=P:problem:kreska pseudotaktowa	!	!	!	!LO:TX:t=P:problem:kreska pseudotaktowa	!
1C	-am	1c	-a(m).	4e\	.	1r	.
.	.	.	.	4d\	.	.	.
.	.	.	.	4c/	-gnam	.	.
.	.	.	.	4B-/	.	.	.
!LO:TX:t=P:problem:kreska pseudotaktowa	!	!	!	!	!	!	!
1F	.	2rA	.	2A/	.	1cc	pro-
*	*	*	*ij	*	*	*	*
.	.	2A/	pro-	1f\	glo-	.	.
*Xlig	*	*	*	*	*	*	*
=24-	=24-	=24-	=24-	=24-	=24-	=24-	=24-
00r	.	2B-/	-pter	.	.	2b-\	-pter
!	!	!LO:TX:t=P:problem:kreska pseudotaktowa	!	!LO:TX:t=P:problem:kreska pseudotaktowa	!	!	!
.	.	2c/	ma-	2e\	-ri-	2g\	ma-
.	.	2F/	-gnam	2f\	-am	2a\	.
.	.	2B-/	glo-	2d\	.	1f/	.
=25-	=25-	=25-	=25-	=25-	=25-	=25-	=25-
.	.	2A/	-ri-	2c\	Tu-	.	.
!	!	!	!	!	!	!LO:TX:t=P:problem:kreska pseudotaktowa	!
.	.	2F/	-a(m)	2d\	.	2f/	-gnam
!	!	!	!	!LO:TX:t=P:problem:kreska pseudotaktowa	!	!	!
.	.	1G	tu-	1B-	-am	2d/	glo-
.	.	.	.	.	.	2e/	-ri-
=26-	=26-	=26-	=26-	=26-	=26-	=26-	=26-
!LO:TX:b:i:t=Vertat	!	!	!	!	!	!	!
!LO:SIC:v:t=custos F	!	!	!	!	!	!	!
!LO:TX:t=P:problem:kreska pseudotaktowa	!	!LO:TX:t=P:problem:kreska pseudotaktowa	!	!	!	!	!
1r	.	1F	-a(m).	2r	.	2f/	-am
*	*	*	*Xij	*	*	*	*
.	.	.	.	1c	Do-	2.a\	Tu-
!LO:PB:g=original	!	!	!	!	!	!	!
!	!	!LO:TX:t=P:problem:kreska pseudotaktowa	!	!	!	!	!
1F	Do-	0r	.	.	.	.	.
.	.	.	.	.	.	4g\	.
.	.	.	.	2c/	-mi-	1cc\	.
=27-	=27-	=27-	=27-	=27-	=27-	=27-	=27-
2F\	-mi-	.	.	2d\	-ne	.	.
!	!	!	!	!	!	!LO:SIC:v:s=2bn	!
!LO:TX:t=P:problem:kreska pseudotaktowa	!	!	!	!	!	!	!
2G\	-ne	.	.	2.e\	DE-	2b-\	.
!	!	!	!	!	!	!LO:TX:t=P:problem:kreska pseudotaktowa	!
1A	De-	1.c	Do-	.	.	1cc	-am.
.	.	.	.	4d\	.	.	.
.	.	.	.	2e\	.	.	.
=28-	=28-	=28-	=28-	=28-	=28-	=28-	=28-
!	!	!	!	!LO:TX:t=P:problem:kreska pseudotaktowa	!	!	!
2F\	.	.	.	1f	-US!	2rf	.
!LO:TX:t=P:problem:kreska pseudotaktowa	!	!	!	!	!	!	!
2F\	-us	2c\	-mi-	.	.	2f/	Do-
!	!	!	!	!LO:LB:g=original	!	!	!
!	!	!	!	!LO:TX:t=P:problem:kreska pseudotaktowa	!	!	!
2B-\	Rex	1d	-ne	1rg	.	2f/	-mi-
!	!	!	!	!	!	!LO:TX:t=P:problem:kreska pseudotaktowa	!
2B-\	Cae-	.	.	.	.	2g\	-ne
=29-	=29-	=29-	=29-	=29-	=29-	=29-	=29-
!LO:TX:t=P:problem:kreska pseudotaktowa	!	!	!	!	!	!	!
1A	-le-	1e	DE-	0c	Rex	1a	DE-
!	!	!LO:TX:t=P:problem:kreska pseudotaktowa	!	!	!	!	!
1F	-stis	1f	-US!	.	.	2a,\	-us
.	.	.	.	.	.	2f/	Rex
!	!	!LO:LB:g=original	!	!	!	!	!
=30-	=30-	=30-	=30-	=30-	=30-	=30-	=30-
!	!	!LO:TX:t=P:problem:kreska pseudotaktowa	!	!	!	!	!
2B-\	DE-	0r	.	1d	cae-	2f/	cae-
!	!	!	!	!	!	!LO:SIC:v:t=custos a	!
!LO:TX:t=P:problem:kreska pseudotaktowa	!	!	!	!	!	!LO:TX:t=P:problem:kreska pseudotaktowa	!
2B-\	-(us)	.	.	.	.	2g\	-le-
!	!	!	!	!	!	!LO:LB:g=original	!
2.A\	Pa-	.	.	1e	-le-	1.a	-stis
4G\	-ter	.	.	.	.	.	.
=31-	=31-	=31-	=31-	=31-	=31-	=31-	=31-
!	!	!	!	!LO:TX:t=P:problem:kreska pseudotaktowa	!	!	!
4F/	O-	2r	.	1f	-ſtis	.	.
4E/	.	.	.	.	.	.	.
!	!	!	!	!	!	!LO:TX:t=P:problem:kreska pseudotaktowa	!
1F	.	2.c\	De-	.	.	2a\	DE-
.	.	.	.	1rg	.	2cc\	.
.	.	4d\	.	.	.	.	.
!LO:TX:t=P:problem:kreska pseudotaktowa	!	!	!	!	!	!	!
2C/	-mni-	2e\	-us	.	.	2cc\	-US
=32-	=32-	=32-	=32-	=32-	=32-	=32-	=32-
1.F	-po-	2.c/	Pa-	2r	.	2a\	Pa-
!	!	!	!	!	!	!LO:TX:t=P:problem:kreska pseudotaktowa	!
.	.	.	.	2.c\	De-	2a\	-ter
.	.	4B-/	.	.	.	.	.
.	.	2A/	-ter	.	.	2.cc\	om-
.	.	.	.	4d\	-us	.	.
!	!	!LO:TX:t=P:problem:kreska pseudotaktowa	!	!LO:TX:t=P:problem:kreska pseudotaktowa	!	!	!
2C/	.	2G/	O-	2e\	Pa-	.	.
.	.	.	.	.	.	4b-\	-ni-
=33-	=33-	=33-	=33-	=33-	=33-	=33-	=33-
!LO:TX:t=P:problem:kreska pseudotaktowa	!	!	!	!	!	!	!
1F	-tens.	2.F/	-mni-	2c,\	-ter	4a\	.
.	.	.	.	.	.	4g\	.
.	.	.	.	2f\	Om-	1a	.
.	.	4G/	.	.	.	.	.
0r	.	4A/	-po-	2f\	-ni-	.	.
.	.	4B-/	.	.	.	.	.
!	!	!	!	!LO:TX:t=P:problem:kreska pseudotaktowa	!	!	!
.	.	2c/	.	2e\	-po-	2g\	-po-
=34-	=34-	=34-	=34-	=34-	=34-	=34-	=34-
!	!	!LO:TX:t=P:problem:kreska pseudotaktowa	!	!	!	!LO:TX:t=P:problem:kreska pseudotaktowa	!
.	.	0F	tens.	2f,\	-tens	0a	-tens.
.	.	.	.	2.f\	Do-	.	.
2r	.	.	.	.	.	.	.
.	.	.	.	4f\	-mi-	.	.
!	!	!	!	!LO:TX:t=P:problem:kreska pseudotaktowa	!	!	!
2.c\	Do-	.	.	2f\	-ne	.	.
=35-	=35-	=35-	=35-	=35-	=35-	=35-	=35-
!	!	!	!	!	!	!LO:TX:t=P:problem:kreska pseudotaktowa	!
.	.	00r	.	1e	Fi-	1r	.
4c\	-mi-	.	.	.	.	.	.
!LO:TX:t=P:problem:kreska pseudotaktowa	!	!	!	!	!	!	!
2c\	-ne	.	.	.	.	.	.
2B-\	Fi-	.	.	2d\	-li	2r	.
2A\	-li	.	.	1f\	Fi-	2.cc\	Do-
=36-	=36-	=36-	=36-	=36-	=36-	=36-	=36-
2.c\	U-	.	.	.	.	.	.
.	.	.	.	.	.	4cc\	-mi-
.	.	.	.	4e\	.	1cc	-ne
4B-\	-ni-	.	.	4d\	.	.	.
!	!	!	!	!LO:TX:t=P:problem:kreska pseudotaktowa	!	!	!
2A\	-ge-	.	.	1e	.	.	.
!	!	!	!	!	!	!LO:TX:t=P:problem:kreska pseudotaktowa	!
2G\	-ni-	.	.	.	.	2b-\	Fi-
=37-	=37-	=37-	=37-	=37-	=37-	=37-	=37-
!LO:TX:t=P:problem:kreska pseudotaktowa	!	!LO:TX:t=P:problem:kreska pseudotaktowa	!	!	!	!	!
1F	-te	0r	.	2f,\	li	1a	-li
.	.	.	.	1f	U-	.	.
2r	.	.	.	.	.	2.cc\	U-
1F\	u-	.	.	2c/	-ni-	.	.
.	.	.	.	.	.	4b-\	.
=38-	=38-	=38-	=38-	=38-	=38-	=38-	=38-
.	.	2.c/	Do-	2f\	-ge-	2a\	.
!LO:TX:t=P:problem:kreska pseudotaktowa	!	!	!	!	!	!	!
2C/	-ni-	.	.	2e\	-ni-	2g\	-ni-
.	.	4c/	-mi-	.	.	.	.
2F\	-ge-	2c/	-ne	2f\	-te	2a\	-ge-
!	!	!	!	!LO:TX:t=P:problem:kreska pseudotaktowa	!	!	!
2G\	-ni-	2B-/	Fi-	2d\	.	2b-\	-ni-
=39-	=39-	=39-	=39-	=39-	=39-	=39-	=39-
!LO:TX:t=P:problem:kreska pseudotaktowa	!	!LO:TX:t=P:problem:kreska pseudotaktowa	!	!	!	!LO:TX:t=P:problem:kreska pseudotaktowa	!
1F	-te	1A	-li	1.f	Je-	1cc	-te
0C	Je-	2.c/	U-	.	.	2rcc	.
.	.	.	.	4e\	.	1cc\	JE-
.	.	4B-/	-ni-	4d\	.	.	.
=40-	=40-	=40-	=40-	=40-	=40-	=40-	=40-
.	.	2A/	-ge-	1e	-su	.	.
!	!	!	!	!	!	!LO:TX:t=P:problem:kreska pseudotaktowa	!
.	.	2G/	-ni-	.	.	2cc\	.
!	!	!LO:TX:t=P:problem:kreska pseudotaktowa	!	!	!	!	!
1D	-su	1F	-te	0f	X-	1.a	-SU
=41-	=41-	=41-	=41-	=41-	=41-	=41-	=41-
1F	X-	1.c	Je-	.	.	.	.
.	.	.	.	.	.	4g/	.
.	.	.	.	.	.	4f/	.
!LO:TX:t=P:problem:kreska pseudotaktowa	!	!	!	!LO:TX:t=P:problem:kreska pseudotaktowa	!	!	!
1C	-te	.	.	1e,	-te.	1g	X-
.	.	2c/	-su	.	.	.	.
!LO:LB:g=original	!	!	!	!	!	!	!
=42-	=42-	=42-	=42-	=42-	=42-	=42-	=42-
!	!	!	!	!	!	!LO:TX:t=P:problem:kreska pseudotaktowa	!
2.F\	Do-	1A	X-	2.c\	Do-	1f	-te
4F\	-mi-	.	.	4c\	-mi-	.	.
!	!	!	!	!LO:SIC:v:t=custos f	!	!	!
!	!	!LO:TX:t=P:problem:kreska pseudotaktowa	!	!LO:TX:t=P:problem:kreska pseudotaktowa	!	!	!
2BB-/	-ne	1B-	-te	2d\	-ne	1r	.
!	!	!	!	!LO:LB:g=original	!	!	!
2D/	DE-	.	.	1f\	De-	.	.
=43-	=43-	=43-	=43-	=43-	=43-	=43-	=43-
!LO:TX:t=P:problem:kreska pseudotaktowa	!	!	!	!	!	!	!
1C	-(us)	2.c/	D(o-	.	.	2.g\	Do-
!	!	!	!	!LO:TX:t=P:problem:kreska pseudotaktowa	!	!	!
.	.	.	.	2e\	-us	.	.
.	.	4c/	-mi-	.	.	4g\	-mi-
0r	.	2F/	-n)e	(>4f\	a-	2a\	-ne
.	.	.	.	4e\)	.	.	.
.	.	2A/	De-	(>4d\	-gnus	1cc\	DE-
!	!	!	!	!LO:TX:t=P:problem:kreska pseudotaktowa	!	!	!
.	.	.	.	4c\)	.	.	.
=44-	=44-	=44-	=44-	=44-	=44-	=44-	=44-
!	!	!LO:TX:t=P:problem:kreska pseudotaktowa	!	!	!	!	!
.	.	1G	-us	1d	De-	.	.
!	!	!	!	!	!	!LO:SIC:v:s=2bn	!
.	.	.	.	.	.	2b-\	.
!	!	!	!	!	!	!LO:SIC:v:t=custos cc	!
!	!	!LO:TX:t=P:problem:kreska pseudotaktowa	!	!LO:TX:t=P:problem:kreska pseudotaktowa	!	!LO:TX:t=P:problem:kreska pseudotaktowa	!
2r	.	1rd	.	1c	-i	1cc	-US
2c\	A-	.	.	.	.	.	.
!	!	!	!	!	!	!LO:LB:g=original	!
=45-	=45-	=45-	=45-	=45-	=45-	=45-	=45-
4c\	-gnus	1F	a-	2r	.	2r	.
4B-\	.	.	.	.	.	.	.
4A\	.	.	.	2f\	A-	2cc\	A-
!LO:TX:t=P:problem:kreska pseudotaktowa	!	!	!	!	!	!	!
4G\	.	.	.	.	.	.	.
2F\	De-	2A,/	-gnus	2f\	-gnus	2cc\	-gnus
!	!	!	!	!LO:TX:t=P:problem:kreska pseudotaktowa	!	!	!
2G\	.	2B-/	De-	2d\	De-	2b-\	De-
=46-	=46-	=46-	=46-	=46-	=46-	=46-	=46-
!LO:TX:t=P:problem:kreska pseudotaktowa	!	!LO:TX:t=P:problem:kreska pseudotaktowa	!	!	!	!LO:TX:t=P:problem:kreska pseudotaktowa	!
1F	-i	1c	-i	2f,\	-i	0a	-i
.	.	.	.	1f	Fi-	.	.
!LO:TX:t=P:problem:kreska pseudotaktowa	!	!	!	!	!	!	!
[<1F	Fi-	2.c/	Fi-	.	.	.	.
.	.	.	.	2c/	-li-	.	.
.	.	4B-/	-li-	.	.	.	.
=47-	=47-	=47-	=47-	=47-	=47-	=47-	=47-
!LO:N:vis=4	!	!	!	!	!	!	!
!LO:N:xstem:cue	!	!	!	!	!	!	!
2F]	.	2A/	-us	2f\	-us	2.cc\	Fi-
!	!	!LO:TX:t=P:problem:kreska pseudotaktowa	!	!	!	!	!
2C/	-li-	2G/	Pa-	2e\	Pa-	.	.
.	.	.	.	.	.	4b-\	-li-
2F\	-us	2F/	.	2f,\	-tris	2a\	-us
1F\	Pa-	1A/	.	1f\	Fi-	1cc\	Pa-
=48-	=48-	=48-	=48-	=48-	=48-	=48-	=48-
.	.	.	.	.	.	.	.
!	!	!	!	!LO:TX:t=P:problem:kreska pseudotaktowa	!	!LO:TX:t=P:problem:kreska pseudotaktowa	!
2G\	.	2B-/	.	2d\	-li-	2b-\	.
2F/	.	2.c/	.	2f,\	-us	2a\	.
2C/	.	.	.	2e\	Pa-	2.g/	.
.	.	4B-/	.	.	.	.	.
=49-	=49-	=49-	=49-	=49-	=49-	=49-	=49-
1D	.	2A/	.	2d\	.	.	.
.	.	.	.	.	.	4f/	.
.	.	4G/	.	2B-/	.	1f	.
.	.	4F/	.	.	.	.	.
1C	.	1G	.	1c	.	.	.
.	.	.	.	.	.	2e/	.
=50-	=50-	=50-	=50-	=50-	=50-	=50-	=50-
0F;>	-tris.	0A;>	tris.	0c;>	-tris.	0f;>	-tris.
=51||	=51||	=51||	=51||	=51||	=51||	=51||	=51||
*M2/1	*	*M2/1	*	*M2/1	*	*M2/1	*
*met(C|)	*	*met(C|)	*	*met(C|)	*	*met(C|)	*
!	!	!	!	!LO:TX:t=P:problem:kreska pseudotaktowa	!	!LO:TX:t=P:problem:kreska pseudotaktowa	!
0r	.	1c	Qui	0r	.	0r	.
.	.	2c/	tol-	.	.	.	.
.	.	2B-/	.	.	.	.	.
=52-	=52-	=52-	=52-	=52-	=52-	=52-	=52-
1F	Qui	1.A	-lis	1f	Qui	1cc	Qui
2F/	tol-	.	.	1.f	tol-	2cc\	tol-
!	!	!LO:TX:t=P:problem:kreska pseudotaktowa	!	!	!	!	!
2BB-/	.	2B-/	pec-	.	.	2b-\	-lis
=53-	=53-	=53-	=53-	=53-	=53-	=53-	=53-
!LO:TX:t=P:problem:kreska pseudotaktowa	!	!	!	!	!	!	!
1F	-lis	1c	.	.	.	1a	pec-
!	!	!	!	!LO:TX:t=P:problem:kreska pseudotaktowa	!	!	!
.	.	.	.	2f\	-lis	.	.
!	!	!	!	!	!	!LO:TX:t=P:problem:kreska pseudotaktowa	!
1G	pec-	1B-	-ca-	2.d\	pec-	1g	-ca-
.	.	.	.	4c\	.	.	.
=54-	=54-	=54-	=54-	=54-	=54-	=54-	=54-
2.D/	-ca-	2A/	-ta	4d\	.	1a	-ta
.	.	.	.	4e\	.	.	.
.	.	2.d\	mun-	1f	-ca-	.	.
4E/	.	.	.	.	.	.	.
1F	ta	.	.	.	.	1a	mun-
.	.	4c/	.	.	.	.	.
!	!	!	!	!LO:TX:t=P:problem:kreska pseudotaktowa	!	!	!
.	.	1c\	.	2f\	-ta	.	.
=55-	=55-	=55-	=55-	=55-	=55-	=55-	=55-
!	!	!	!	!	!	!LO:TX:t=P:problem:kreska pseudotaktowa	!
0G	mun-	.	.	1d	mun-	0g	-di
.	.	4B-/	.	.	.	.	.
.	.	4A/	.	.	.	.	.
!	!	!	!	!LO:TX:t=P:problem:kreska pseudotaktowa	!	!	!
.	.	1B-	.	1d	-di	.	.
=56-	=56-	=56-	=56-	=56-	=56-	=56-	=56-
!LO:TX:t=P:problem:kreska pseudotaktowa	!	!LO:TX:t=P:problem:kreska pseudotaktowa	!	!	!	!	!
1C	-di	1c	-di	2e\	mi-	2r	.
!	!	!	!	!LO:TX:t=P:problem:kreska pseudotaktowa	!	!	!
.	.	.	.	2e\	-ſe-	2g\	mi-
!	!	!LO:TX:t=P:problem:kreska pseudotaktowa	!	!	!	!	!
2r	.	0r	.	2f\	-re-	4a\	-se-
.	.	.	.	.	.	4g\	.
!LO:TX:t=P:problem:kreska pseudotaktowa	!	!	!	!	!	!	!
2F\	mi-	.	.	2f\	-re	4a\	.
.	.	.	.	.	.	4b-\	.
=57-	=57-	=57-	=57-	=57-	=57-	=57-	=57-
2A\	-ſe-	.	.	2e\	no-	2cc\	[re]-
!	!	!	!	!LO:TX:t=P:problem:kreska pseudotaktowa	!	!	!
2B-\	-re-	.	.	2d\	.	2dd\	-re
4c\	-re	2rB	.	2e\	.	1.cc	no-
4B-\	.	.	.	.	.	.	.
4A\	.	2F/	mi-	2.f\	.	.	.
!LO:TX:t=P:problem:kreska pseudotaktowa	!	!	!	!	!	!	!
!LO:SIC:v:t=custos F	!	!	!	!	!	!	!
4G\	.	.	.	.	.	.	.
!LO:LB:g=original	!	!	!	!	!	!	!
=58-	=58-	=58-	=58-	=58-	=58-	=58-	=58-
2F\	no-	2A/	-ſe-	.	.	.	.
.	.	.	.	4e\	.	.	.
!	!	!LO:TX:t=P:problem:kreska pseudotaktowa	!	!	!	!LO:TX:t=P:problem:kreska pseudotaktowa	!
2G\	.	2B-/	-re-	4d\	.	2b-\	.
!	!	!	!	!LO:TX:t=P:problem:kreska pseudotaktowa	!	!	!
.	.	.	.	4e\	.	.	.
0F	.	4c/	-re	2f\	.	2a\	.
.	.	4B-/	.	.	.	.	.
.	.	4A/	.	2c/	.	2.a\	.
.	.	4G/	.	.	.	.	.
=59-	=59-	=59-	=59-	=59-	=59-	=59-	=59-
!	!	!	!	!LO:TX:t=P:problem:kreska pseudotaktowa	!	!	!
.	.	2F/	no-	0.c	-bis.	.	.
.	.	.	.	.	.	4g/	.
.	.	2A/	.	.	.	1f	.
!LO:TX:t=P:problem:kreska pseudotaktowa	!	!LO:TX:t=P:problem:kreska pseudotaktowa	!	!	!	!	!
1C	-bis	1G	-bis.	.	.	.	.
.	.	.	.	.	.	4e/	.
.	.	.	.	.	.	4d/	.
=60-	=60-	=60-	=60-	=60-	=60-	=60-	=60-
!	!	!	!	!	!	!LO:SIC:v:t=custos f	!
!	!	!LO:TX:t=P:problem:kreska pseudotaktowa	!	!	!	!LO:TX:t=P:problem:kreska pseudotaktowa	!
2rC	.	0r	.	.	.	1e	-bis.
2C/	Qui	.	.	.	.	.	.
!	!	!	!	!	!	!LO:LB:g=original	!
!	!	!	!	!LO:N:vis=1	!	!	!
1.F	tol-	.	.	2c\	Qui	2r	.
!	!	!	!	!LO:TX:t=P:problem:kreska pseudotaktowa	!	!	!
.	.	.	.	1f\	tol-	2f/	Qui
=61-	=61-	=61-	=61-	=61-	=61-	=61-	=61-
!	!	!	!	!	!	!LO:TX:t=P:problem:kreska pseudotaktowa	!
.	.	2rB	.	.	.	1a	tol-
!LO:TX:t=P:problem:kreska pseudotaktowa	!	!	!	!	!	!	!
2F\	-lis	2F/	Qui	2f\	-lis	.	.
1F	pec-	1c	tol-	1f	pec-	2a\	-lis
.	.	.	.	.	.	1a\	pec-
=62-	=62-	=62-	=62-	=62-	=62-	=62-	=62-
1F	-ca-	2c\	-lis	2f\	-ca-	.	.
!	!	!	!	!	!	!LO:TX:t=P:problem:kreska pseudotaktowa	!
.	.	1c	pec-	2e\	.	2a\	-ca-
!LO:TX:t=P:problem:kreska pseudotaktowa	!	!	!	!LO:TX:t=P:problem:kreska pseudotaktowa	!	!	!
1A	-ta	.	.	2f\	-ta	1cc	-ta
!	!	!LO:TX:t=P:problem:kreska pseudotaktowa	!	!	!	!	!
.	.	2c\	-ca-	1g\	mun-	.	.
=63-	=63-	=63-	=63-	=63-	=63-	=63-	=63-
1G	mun-	2d\	-ta	.	.	1b-	mun-
!	!	!	!	!LO:TX:t=P:problem:kreska pseudotaktowa	!	!	!
.	.	2e\	mun-	1c	-di	.	.
!LO:TX:t=P:problem:kreska pseudotaktowa	!	!	!	!	!	!LO:TX:t=P:problem:kreska pseudotaktowa	!
1F	di	2f,\	-di	.	.	1a	-di
.	.	1f\	Su-	2re	.	.	.
=64-	=64-	=64-	=64-	=64-	=64-	=64-	=64-
1.F	Su-	.	.	1f	Su-	1.a	Su-
.	.	2c/	-ſci-	.	.	.	.
!	!	!LO:TX:t=P:problem:kreska pseudotaktowa	!	!LO:TX:t=P:problem:kreska pseudotaktowa	!	!	!
.	.	1c	-pe	2e\	-ſci-	.	.
2C/	-ſci-	.	.	1.e\	-pe	2g/	-ſci-
=65-	=65-	=65-	=65-	=65-	=65-	=65-	=65-
!LO:TX:t=P:problem:kreska pseudotaktowa	!	!	!	!	!	!LO:TX:t=P:problem:kreska pseudotaktowa	!
1C	-pe	2r	.	.	.	1g	-pe
*	*	*	*ij	*	*	*	*
.	.	1c	Su-	.	.	.	.
1rd	.	.	.	1f	de-	2r	.
.	.	2F/	-ſci-	.	.	2.cc\	de-
=66-	=66-	=66-	=66-	=66-	=66-	=66-	=66-
!	!	!LO:TX:t=P:problem:kreska pseudotaktowa	!	!	!	!	!
2.c\	de-	1F	-pe	4e\	.	.	.
*	*	*	*Xij	*	*	*	*
!	!	!	!	!LO:TX:t=P:problem:kreska pseudotaktowa	!	!	!
.	.	.	.	4d\	.	4cc\	-pre-
.	.	.	.	4e\	-pre-	2cc\	-ca-
4c\	-pre-	.	.	4f\	.	.	.
!	!	!	!	!LO:TX:t=P:problem:kreska pseudotaktowa	!	!	!
2c\	-ca-	00r	.	2g\	-ca-	2g/	-ti-
!LO:TX:t=P:problem:kreska pseudotaktowa	!	!	!	!	!	!	!
2G\	-ti-	.	.	2f\	-ti-	2.b-\	-o-
=67-	=67-	=67-	=67-	=67-	=67-	=67-	=67-
1B-	-o-	.	.	4e\	-o-	.	.
.	.	.	.	4d\	.	4a\	-nem
!	!	!	!	!LO:TX:t=P:problem:kreska pseudotaktowa	!	!	!
.	.	.	.	1c	-nem	1g	no-
2A\	.	.	.	.	.	.	.
4G\	-nem	.	.	0r	.	1f/	.
4F\	.	.	.	.	.	.	.
=68-	=68-	=68-	=68-	=68-	=68-	=68-	=68-
1G	no-	.	.	.	.	.	.
!	!	!	!	!	!	!LO:TX:t=P:problem:kreska pseudotaktowa	!
.	.	.	.	.	.	2e/	.
!LO:TX:t=P:problem:kreska pseudotaktowa	!	!	!	!	!	!	!
1F	-stram	2r	.	.	.	2f,/	-stram
!	!	!	!	!LO:TX:t=P:problem:kreska pseudotaktowa	!	!	!
.	.	2c\	Qui	1r	.	2a\	Qui
!	!	!	!	!LO:PB:g=original	!	!	!
=69-	=69-	=69-	=69-	=69-	=69-	=69-	=69-
2rD	.	2c\	se-	.	.	2g\	.
!	!	!	!	!LO:N:vis=2	!	!	!
!LO:TX:t=P:problem:kreska pseudotaktowa	!	!	!	!	!	!	!
2F/	Qui	1c	-des	1r	.	2.a\	se-
2F/	se-	.	.	.	.	.	.
.	.	.	.	.	.	4g\	.
!	!	!LO:TX:t=P:problem:kreska pseudotaktowa	!	!	!	!	!
1F\	-des	2F/	ad	2c/	Qui	4a\	.
.	.	.	.	.	.	4b-\	.
=70-	=70-	=70-	=70-	=70-	=70-	=70-	=70-
!	!	!	!	!	!	!LO:TX:t=P:problem:kreska pseudotaktowa	!
.	.	2.A/	dex-	2c/	se-	1cc	-des
!LO:TX:t=P:problem:kreska pseudotaktowa	!	!	!	!	!	!	!
2C/	ad	.	.	1c	-des	.	.
.	.	4A/	-te-	.	.	.	.
!	!	!	!	!	!	!LO:TX:t=P:problem:kreska pseudotaktowa	!
2.E/	dex-	2G/	-ram	.	.	1rdd	.
!	!	!	!	!LO:TX:t=P:problem:kreska pseudotaktowa	!	!	!
.	.	2G/	P(a-	2G/	ad	.	.
4E/	-te-	.	.	.	.	.	.
=71-	=71-	=71-	=71-	=71-	=71-	=71-	=71-
2D,/	-ram	2F,/	-t)ris	2.A/	dex-	2r	.
!	!	!LO:TX:t=P:problem:kreska pseudotaktowa	!	!	!	!	!
2D/	P(a-	2f\	mi-	.	.	2a\	mi-
.	.	.	.	4B-/	te-	.	.
!LO:TX:t=P:problem:kreska pseudotaktowa	!	!	!	!	!	!	!
1C	-t)ris	2f\	-ſe-	2c/	-ram	2a\	-ſe-
!	!	!	!	!	!	!LO:TX:t=P:problem:kreska pseudotaktowa	!
.	.	2e\	-re-	2c/	Pa-	2g\	-re-
=72-	=72-	=72-	=72-	=72-	=72-	=72-	=72-
2r	.	2f\	-re	2F,/	-tris	2.a\	-re
!	!	!	!	!LO:TX:t=P:problem:kreska pseudotaktowa	!	!	!
2F\	mi-	2f\	no-	2A/	mi-	.	.
.	.	.	.	.	.	4b-\	no-
!	!	!LO:TX:t=P:problem:kreska pseudotaktowa	!	!	!	!	!
2F\	-ſe-	1c	-bis	2A/	-ſe-	2cc,\	-bis.
!LO:TX:t=P:problem:kreska pseudotaktowa	!	!	!	!	!	!	!
2E/	-re-	.	.	2G/	-re-	2.cc\	Quo-
=73-	=73-	=73-	=73-	=73-	=73-	=73-	=73-
!	!	!LO:TX:t=P:problem:kreska pseudotaktowa	!	!	!	!	!
2F\	-re	1rg	.	2A/	-re	.	.
.	.	.	.	.	.	4cc\	-ni-
!	!	!	!	!	!	!LO:SIC:v:t=custos a	!
!	!	!	!	!	!	!LO:TX:t=P:problem:kreska pseudotaktowa	!
2G\	no-	.	.	2B-/	.	2b-\	-am
!LO:TX:t=P:problem:kreska pseudotaktowa	!	!	!	!	!	!	!
1F	-bis.	2r	.	2.c\	no-	1a	Tu
.	.	2.c/	Quo-	.	.	.	.
.	.	.	.	4d\	.	.	.
!LO:LB:g=original	!	!	!	!	!	!LO:LB:g=original	!
=74-	=74-	=74-	=74-	=74-	=74-	=74-	=74-
!LO:TX:t=P:problem:kreska pseudotaktowa	!	!	!	!	!	!	!
0r	.	.	.	2e\	.	2g\	so-
.	.	4c/	-ni-	.	.	.	.
!	!	!LO:TX:t=P:problem:kreska pseudotaktowa	!	!LO:TX:t=P:problem:kreska pseudotaktowa	!	!	!
.	.	2B-/	-am	2d,\	-bis	2g\	-lus
.	.	2A/	Tu	2.f\	Quo-	0a	San-
.	.	2F/	.	.	.	.	.
.	.	.	.	4f\	-ni-	.	.
=75-	=75-	=75-	=75-	=75-	=75-	=75-	=75-
2.F/	Quo-	4A/	so-	2c\	-am	.	.
.	.	4G/	.	.	.	.	.
.	.	4A/	-lus	2f\	Tu	.	.
4F/	-ni-	4B-/	.	.	.	.	.
2C/	-am	2c/	San-	2e\	so-	2g\	.
1c\	Tu	2A/	.	4d\	-l(us)	2f/	.
.	.	.	.	4c\	.	.	.
=76-	=76-	=76-	=76-	=76-	=76-	=76-	=76-
!	!	!LO:TX:t=P:problem:kreska pseudotaktowa	!	!LO:TX:t=P:problem:kreska pseudotaktowa	!	!LO:TX:t=P:problem:kreska pseudotaktowa	!
.	.	1G	-ct(us).	1d	San-	1g	-ctus
!LO:TX:t=P:problem:kreska pseudotaktowa	!	!	!	!	!	!	!
2B-\	so-	.	.	.	.	.	.
!	!	!LO:LB:g=original	!	!	!	!	!
!	!	!LO:TX:t=P:problem:kreska pseudotaktowa	!	!	!	!	!
2A\	-lus	0r	.	2c\	-ct(us)	2rf	.
*	*	*	*	*	*ij	*	*
2.B-\	San-	.	.	2.d\	San-	2f/	Tu
=77-	=77-	=77-	=77-	=77-	=77-	=77-	=77-
.	.	.	.	.	.	2f/	so-
4A\	.	.	.	4c\	.	.	.
2G\	.	.	.	4d\	.	2g\	-lus
.	.	.	.	4e\	.	.	.
*	*	*	*	*	*	*	*ij
!LO:TX:t=P:problem:kreska pseudotaktowa	!	!	!	!	!	!	!
1F	-ctus	2rB	.	2f,\	-ct(us)	2.a\	So-
*	*	*	*	*	*Xij	*	*
.	.	1c\	Tu	2f\	Tu	.	.
!	!	!	!	!	!	!LO:TX:t=P:problem:kreska pseudotaktowa	!
.	.	.	.	.	.	4a\	-lus
*	*	*	*	*	*	*	*Xij
=78-	=78-	=78-	=78-	=78-	=78-	=78-	=78-
2r	.	.	.	2e\	so-	2g\	Do-
!	!	!LO:TX:t=P:problem:kreska pseudotaktowa	!	!LO:TX:t=P:problem:kreska pseudotaktowa	!	!	!
2F\	Tu	2c\	so-	2f\	-lus	1cc	.
2F\	so-	2d\	-lus	1rg	.	.	.
!LO:TX:t=P:problem:kreska pseudotaktowa	!	!	!	!	!	!	!
2G\	-lus	1e\	Do-	.	.	2b-\	-mi-
=79-	=79-	=79-	=79-	=79-	=79-	=79-	=79-
!	!	!	!	!	!	!LO:TX:t=P:problem:kreska pseudotaktowa	!
2.A\	Do-	.	.	2r	.	1cc	-n(us).
.	.	2e\	-mi-	1c	Tu	.	.
4A\	-mi-	.	.	.	.	.	.
!	!	!LO:TX:t=P:problem:kreska pseudotaktowa	!	!	!	!	!
2F,\	-n(us)	1f	-n(us)	.	.	2rf	.
*	*	*	*	*	*	*	*ij
!LO:TX:t=P:problem:kreska pseudotaktowa	!	!	!	!	!	!	!
2F\	Tu	.	.	2c/	so-	2f/	Tu
=80-	=80-	=80-	=80-	=80-	=80-	=80-	=80-
!	!	!LO:TX:t=P:problem:kreska pseudotaktowa	!	!	!	!	!
1B-	so-	1rg	.	2d,\	-l(us)	2f/	so-
!	!	!	!	!LO:SIC:v:t=custos e	!	!	!
!	!	!	!	!LO:TX:t=P:problem:kreska pseudotaktowa	!	!LO:TX:t=P:problem:kreska pseudotaktowa	!
.	.	.	.	2d\	al-	2g\	-lus
!	!	!	!	!LO:LB:g=original	!	!	!
!LO:TX:t=P:problem:kreska pseudotaktowa	!	!	!	!	!	!	!
1A	-l(us)	2r	.	2e\	-tiſ-	2.a\	Do-
.	.	1c\	Tu	2e\	-si-	.	.
.	.	.	.	.	.	4a\	-mi-
=81-	=81-	=81-	=81-	=81-	=81-	=81-	=81-
!	!	!	!	!LO:TX:t=P:problem:kreska pseudotaktowa	!	!	!
1F	al-	.	.	1f	-m(us)	2a\	-n(us).
*	*	*	*	*	*	*	*Xij
!	!	!	!	!	!	!LO:TX:t=P:problem:kreska pseudotaktowa	!
.	.	2c/	so-	.	.	2f/	Tu
2B-\	-tiſ-	2d\	-lus	0r	.	2f/	so-
2B-\	-si-	2d\	al-	.	.	2g\	-lus
=82-	=82-	=82-	=82-	=82-	=82-	=82-	=82-
!LO:TX:t=P:problem:kreska pseudotaktowa	!	!	!	!	!	!LO:TX:t=P:problem:kreska pseudotaktowa	!
1A	-m(us)	2e\	-tiſ-	.	.	1a	al-
.	.	2e\	-si-	.	.	.	.
!	!	!LO:TX:t=P:problem:kreska pseudotaktowa	!	!LO:TX:t=P:problem:kreska pseudotaktowa	!	!	!
0F	Je-	1f	-m(us)	1r	.	2a\	-tiſ-
.	.	.	.	.	.	2a\	-si-
=83-	=83-	=83-	=83-	=83-	=83-	=83-	=83-
.	.	1c	Je-	0f	Je-	2a\	-m(us)
.	.	.	.	.	.	1a	Je-
!LO:TX:t=P:problem:kreska pseudotaktowa	!	!	!	!	!	!	!
1F	-su	2d\	-su	.	.	.	.
!	!	!	!	!	!	!LO:TX:t=P:problem:kreska pseudotaktowa	!
.	.	1c\	X-	.	.	2a\	-su
=84-	=84-	=84-	=84-	=84-	=84-	=84-	=84-
1G	X-	.	.	1d	-su	1g	X-
.	.	2B-/	.	.	.	.	.
!	!	!	!	!	!	!LO:TX:t=P:problem:kreska pseudotaktowa	!
2C,/	-te.	2c,\	-te	1e	X-	1g	-te
!	!	!LO:TX:t=P:problem:kreska pseudotaktowa	!	!	!	!	!
2C/	Cum	2G/	Cum	.	.	.	.
=85-	=85-	=85-	=85-	=85-	=85-	=85-	=85-
!	!	!	!	!LO:TX:t=P:problem:kreska pseudotaktowa	!	!	!
2.F\	S(an)-	2.A/	San-	1c	-te	2r	.
!	!	!	!	!	!	!LO:SIC:v:t= custos cc	!
!	!	!	!	!	!	!LO:TX:t=P:problem:kreska pseudotaktowa	!
.	.	.	.	.	.	2cc\	Cum
!LO:TX:t=P:problem:kreska pseudotaktowa	!	!	!	!	!	!	!
4E/	-cto	4G/	-cto	.	.	.	.
!	!	!	!	!	!	!LO:LB:g=original	!
2F\	Sp(i-	2A/	Sp(i-	2rB	.	2cc\	San-
!	!	!	!	!	!	!LO:TX:t=P:problem:kreska pseudotaktowa	!
2G\	-ri-	2B-/	-ri-	2G/	Cum	2b-\	-cto
=86-	=86-	=86-	=86-	=86-	=86-	=86-	=86-
2F\	-t)u	2c/	-t)u	2.A/	S[an]-	4a\	Spi-
.	.	.	.	.	.	4g\	.
!LO:TX:t=P:problem:kreska pseudotaktowa	!	!	!	!	!	!	!
2F\	in	2c/	in	.	.	4a\	.
.	.	.	.	4G/	-cto	4b-\	.
2F\	glo-	2c/	glo-	2A/	Spi-	2cc\	.
!	!	!	!	!	!	!LO:TX:t=P:problem:kreska pseudotaktowa	!
2BB-/	-ri-	2B-/	-ri-	2B-/	-ri-	2dd\	-ri-
=87-	=87-	=87-	=87-	=87-	=87-	=87-	=87-
!	!	!LO:TX:t=P:problem:kreska pseudotaktowa	!	!	!	!	!
!LO:TX:t=P:problem:kreska pseudotaktowa	!	!	!	!	!	!	!
0.F	-a	0A	-a	2c/	-tu	1cc	-tu
!	!	!	!	!LO:TX:t=P:problem:kreska pseudotaktowa	!	!	!
.	.	.	.	2c/	in	.	.
.	.	.	.	2.c/	glo-	2r	.
!	!	!	!	!	!	!LO:TX:t=P:problem:kreska pseudotaktowa	!
.	.	.	.	.	.	2cc\	in
.	.	.	.	4B-/	-ri-	.	.
!LO:LB:g=original	!	!	!	!	!	!	!
=88-	=88-	=88-	=88-	=88-	=88-	=88-	=88-
!	!	!LO:TX:t=P:problem:kreska pseudotaktowa	!	!	!	!	!
.	.	1rg	.	2A,/	-a	2.cc\	glo-
.	.	.	.	2f\	De-	.	.
!	!	!	!	!	!	!LO:TX:t=P:problem:kreska pseudotaktowa	!
.	.	.	.	.	.	4b-\	-ri-
!LO:TX:t=P:problem:kreska pseudotaktowa	!	!	!	!	!	!	!
1rc	.	2rB	.	2f\	-i	2a\	-a
*	*	*	*ij	*	*	*	*
!	!	!	!	!LO:TX:t=P:problem:kreska pseudotaktowa	!	!	!
.	.	2c/	in	2e\	Pa-	2g/	De-
=89-	=89-	=89-	=89-	=89-	=89-	=89-	=89-
1F	in	2.c/	glo-	2f,\	-tris	2f,/	-i
.	.	.	.	2f\	in	2cc\	in
.	.	4B-/	-ri-	.	.	.	.
2F/	glo-	2A,/	-a	2f\	glo-	2.cc\	glo-
*	*	*	*Xij	*	*	*	*
!	!	!	!	!LO:TX:t=P:problem:kreska pseudotaktowa	!	!	!
2C/	-ri-	2c/	in	2e\	-ri-	.	.
.	.	.	.	.	.	4b-\	-ri-
=90-	=90-	=90-	=90-	=90-	=90-	=90-	=90-
!	!	!	!	!	!	!LO:TX:t=P:problem:kreska pseudotaktowa	!
2F/	-a	2.c/	glo-	2f\	-a	1a	-a
1F	De-	.	.	2.c\	De-	.	.
!	!	!LO:TX:t=P:problem:kreska pseudotaktowa	!	!	!	!	!
!	!	!LO:SIC:v:t=custos A	!	!	!	!	!
.	.	4B-/	-ri-	.	.	.	.
!	!	!LO:LB:g=original	!	!	!	!	!
.	.	2A/	-a	.	.	2.cc\	De-
.	.	.	.	4d\	.	.	.
!LO:TX:t=P:problem:kreska pseudotaktowa	!	!	!	!LO:TX:t=P:problem:kreska pseudotaktowa	!	!	!
2E/	-i	2G/	De-	2e\	-i	.	.
.	.	.	.	.	.	4b-\	-i
=91-	=91-	=91-	=91-	=91-	=91-	=91-	=91-
2F/	Pa-	2F/	-i	2c,/	Pa-	2a\	Pa-
2BB-/	-tris	2B-/	Pa-	1d	.	1g	-tris
1D	a-	2A/	.	.	.	.	.
.	.	4G/	-tris	2B-/	-tris	1f/	a-
.	.	4F/	.	.	.	.	.
=92-	=92-	=92-	=92-	=92-	=92-	=92-	=92-
!LO:TX:t=P:problem:kreska pseudotaktowa	!	!	!	!	!	!	!
1C	-men	1G	a-	1c	a-	.	.
.	.	.	.	.	.	2e/	.
!	!	!LO:TX:t=P:problem:kreska pseudotaktowa	!	!	!	!	!
2rD	.	1F	-men	2c,\	-men	1%7f;>	-men.
2.BB-/	a-	.	.	2.d\	.	.	.
=93-	=93-	=93-	=93-	=93-	=93-	=93-	=93-
.	.	2rF	.	.	.	.	.
4C/	.	.	.	4c/	.	.	.
!	!	!	!	!LO:TX:t=P:problem:kreska pseudotaktowa	!	!	!
2D/	.	2.F/	a-	2A/	a-	.	.
2BB-/	.	.	.	2B-/	.	.	.
.	.	4G/	.	.	.	.	.
!LO:TX:t=P:problem:kreska pseudotaktowa	!	!LO:TX:t=P:problem:kreska pseudotaktowa	!	!	!	!	!
2F/	.	2A/	.	2c/	.	.	.
=94-	=94-	=94-	=94-	=94-	=94-	=94-	=94-
2D/	.	4F/	.	2d\	.	.	.
.	.	4G/	.	.	.	.	.
2.F/	.	4A/	.	4c/	.	.	.
.	.	4B-/	.	4B-/	.	.	.
.	.	2c/	.	2A/	.	.	.
4E/	.	.	.	.	.	.	.
4D/	.	2F/	.	2B-/	.	.	.
4C/	.	.	.	.	.	.	.
=95-	=95-	=95-	=95-	=95-	=95-	=95-	=95-
1BB-	.	1B-	.	1d	.	.	.
!LO:N:vis=0	!	!LO:N:vis=0	!	!LO:N:vis=0	!	!	!
1F;>	-men.	1A;>	-men.	1c;>	-men	.	.
==	==	==	==	==	==	==	==
*-	*-	*-	*-	*-	*-	*-	*-
!!!system-decoration: [(s1,s2,s3,s4)]
!!!RDF**kern: > = above
!!!RDF**kern: < = below
!!!ENC: Krzysztof Stępień
!!!END: 2021-02-26
!!!EED: Antoni Szymański
!!!EST: 2021-03-16
